X:1
T:Enlish Suite IV Gigue
T:BWV 809
T:J. S. Bach
%%score { ( 1 3 ) | 2 }
L:1/8
Q:1/4=184
M:12/8
K:F
V:1 treble nm="Harp"
V:3 treble 
V:2 bass 
V:1
"^Presto" C | FCF AFA c2 F f3- | fed cdB Acf =Bdf | ege cec =Bcd efg | a=bc' dc'b c'3 z2 a | %5
 Bda g^fg B3 z2 g | Acg fef Gcf _ede | d2 e f/4e/4f/4e/4f/4e/4f/4e/4 d/e/ fed cdB | %8
 AGF cAF c/4B/4c/- c2 cGE | c/4B/4c/- c2 cAF c/4B/4c/- c2 z2 A | BDG BGB ^FDF AFA | %11
 BDG BGB ^FDF AFA | BGB dBd f/4e/4f/- f2 fcA | f/4e/4f/- f2 fdB f/4e/4f/- f2 z2 C | %14
 FCF AFA c2 F f/4e/4f/- f2- | fed cdB Acg fef | Gcf ede FAe d^cd | EAd c=Bc DFc _BAB | %18
 CFB AGA =B,DG CEG | A,CF =B,DF EGc ^FAc | =BAG GAB cde efg | g/4f/4g/- g2 gec g/4f/4g/- g2 gd=B | %22
 g/4f/4g/- g2 gec g/4f/4g/- g2 gd=B | cAf =BGe AFd GFc | FDc FD=B cEG C2 C | FCF AFA c2 F f3- | %26
 fed cdB Acf =Bdf | ege cec =Bcd efg | a=bc' dc'b c'3 z2 a | Bda g^fg B3 z2 g | Acg fef Gcf _ede | %31
 d2 e f/4e/4f/4e/4f/4e/4f/4e/4 d/e/ fed cdB | AGF cAF c/4B/4c/- c2 cGE | %33
 c/4B/4c/- c2 cAF c/4B/4c/- c2 z2 A | BDG BGB ^FDF AFA | BDG BGB ^FDF AFA | %36
 BGB dBd f/4e/4f/- f2 fcA | f/4e/4f/- f2 fdB f/4e/4f/- f2 z2 C | FCF AFA c2 F f/4e/4f/- f2- | %39
 fed cdB Acg fef | Gcf ede FAe d^cd | EAd c=Bc DFc _BAB | CFB AGA =B,DG CEG | A,CF =B,DF EGc ^FAc | %44
 =BAG GAB cde efg | g/4f/4g/- g2 gec g/4f/4g/- g2 gd=B | g/4f/4g/- g2 gec g/4f/4g/- g2 gd=B | %47
 cAf =BGe AFd GFc | FDc FD=B cEG C2 z | z3 z z g ege cec | GcB ABG FEG F2 c' | ac'a faf c2 f F3- | %52
 FGA BAc dc_e d=e^f | g^fa g=fe feg fed | ^c=Bd cAc dce dAd | edf eAe feg fed | %56
 ^ced ced ced d/4c/4d/4c/4d/4c/4d/4c/4 A | a2 A a/4^g/4a/- a2- a2 A a/4g/4a3/2 A | %58
 a2 A a/4^g/4a/- a2- a2 A a/4g/4a3/2 A | f/g/ad Ad^c d3- d2 d | cfc AcA F2 c C3- | %61
 CD_E FGE DFc BAB | CFB AGA B,DA G^FG | F2 D d/4^c/4d/- d2- d2 D d/4c/4d/-d D | %64
 d2 D d/4^c/4d/- d2- d2 D de^f | g^fa gdg afb ada | bac' bag ^fed a2 c | B/c/dG DG^F G3 z2 B | %68
 CEG BGA AEF AEF | B,DF AFG GDE GDE | A,CE GEF G,B,D FDE | F,A,C GEF AEF =BEF | cEG cde fga abc' | %73
 c'/4b/4c'/- c'2 c'af c'/4b/4c'/- c'2 c'ge | c'/4b/4c'/- c'2 c'af c'/4b/4c'/- c'2 c'ge | %75
 fdb eca dBg cAf | BGf BGe fAc F2 z | z3 z z g ege cec | GcB ABG FEG F2 c' | ac'a faf c2 f F3- | %80
 FGA BAc dc_e d=e^f | g^fa g=fe feg fed | ^c=Bd cAc dce dAd | edf eAe feg fed | %84
 ^ced ced ced d/4c/4d/4c/4d/4c/4d/4c/4 A | a2 A a/4^g/4a/- a2- a2 A a/4g/4a3/2 A | %86
 a2 A a/4^g/4a/- a2- a2 A a/4g/4a3/2 A | f/g/ad Ad^c d3- d2 d | cfc AcA F2 c C3- | %89
 CD_E FGE DFc BAB | CFB AGA B,DA G^FG | F2 D d/4^c/4d/- d2- d2 D d/4c/4d/-d D | %92
 d2 D d/4^c/4d/- d2- d2 D de^f | g^fa gdg afb ada | bac' bag ^fed a2 c | B/c/dG DG^F G3 z2 B | %96
 CEG BGA AEF AEF | B,DF AFG GDE GDE | A,CE GEF G,B,D FDE | F,A,C GEF AEF =BEF | cEG cde fga abc' | %101
 c'/4b/4c'/- c'2 c'af c'/4b/4c'/- c'2 c'ge | c'/4b/4c'/- c'2 c'af c'/4b/4c'/- c'2 c'ge | %103
 fdb eca dBg cAf | BGf BGe fAc F2 z |] %105
V:2
 z | z3 z z C, F,C,F, A,F,A, | C3 C,3 F,2 E, D,2 G, | CG,C[I:staff -1] ECE G2 C c3- | %4
 c=BA GAF EGc ^FAc |[I:staff +1] z6 z3 z z C, | F,C,F, A,F,A, C2 F, F3- | FED CDB, A,2 B, C2 C, | %8
 F,C,F, A,F,A, E,C,E, G,E,G, | A,C,F, A,F,A, E,C,E, ^F,D,F, | %10
 G,3 D,B,,G,, D,/4C,/4D,/- D,2 D,A,,^F,, | D,/4C,/4D,/- D,2 D,A,,^F,, D,/4C,/4D,/- D,2 z2 D, | %12
 G,D,G, B,G,B, A,F,A, CA,C | DF,B, DB,D A,F,A, CA, z | z3 z z C,, F,,C,,F,, A,,F,,A,, | %15
 C,G,,C, E,C,E, F,C,F, A,F,A, | C3 z2 ^C, D,A,,D, F,D,F, | A,3 z2 A,, B,,F,,B,, D,B,,D, | %18
 F,2 F,, F,/4E,/4F,/- F,2- F,2 E,, E,3- | E,2 D,, D,2 G,, C,2 E, A,,2 D, | %20
 G,,3 z G,F, E,F,G, G,A,=B, | CG,,C, E,C,E, =B,,G,,B,, D,B,,D, | %22
 E,G,,C, E,C,E, =B,,G,,B,, D,B,,D, | E,C,A,, D,=B,,G,, C,A,,F,, B,,G,,E,, | %24
 A,,F,,D,, G,,F,,G,, C,,3- C,,2 z | z3 z z C, F,C,F, A,F,A, | C3 C,3 F,2 E, D,2 G, | %27
 CG,C[I:staff -1] ECE G2 C c3- | c=BA GAF EGc ^FAc |[I:staff +1] z6 z3 z z C, | %30
 F,C,F, A,F,A, C2 F, F3- | FED CDB, A,2 B, C2 C, | F,C,F, A,F,A, E,C,E, G,E,G, | %33
 A,C,F, A,F,A, E,C,E, ^F,D,F, | G,3 D,B,,G,, D,/4C,/4D,/- D,2 D,A,,^F,, | %35
 D,/4C,/4D,/- D,2 D,A,,^F,, D,/4C,/4D,/- D,2 z2 D, | G,D,G, B,G,B, A,F,A, CA,C | %37
 DF,B, DB,D A,F,A, CA, z | z3 z z C,, F,,C,,F,, A,,F,,A,, | C,G,,C, E,C,E, F,C,F, A,F,A, | %40
 C3 z2 ^C, D,A,,D, F,D,F, | A,3 z2 A,, B,,F,,B,, D,B,,D, | F,2 F,, F,/4E,/4F,/- F,2- F,2 E,, E,3- | %43
 E,2 D,, D,2 G,, C,2 E, A,,2 D, | G,,3 z G,F, E,F,G, G,A,=B, | CG,,C, E,C,E, =B,,G,,B,, D,B,,D, | %46
 E,G,,C, E,C,E, =B,,G,,B,, D,B,,D, | E,C,A,, D,=B,,G,, C,A,,F,, B,,G,,E,, | %48
 A,,F,,D,, G,,F,,G,, C,,3- C,,2[I:staff -1] G | EGE CEC[I:staff +1] G,2 C C,3- | %50
 C,D,E, F,E,G, A,G,B, A,B,C | F,3 z2 F, A,F,A, CA,C | _E2 _E, D,2 C, B,,2 F, B,CA, | %53
 B,CA, =B,2 ^C DCE DG,_B, | A,2 A,, A,/4^G,/4A,/- A,2- A,2 A,, A,/4G,/4A,3/2 A,, | %55
 A,2 A,, A,/4^G,/4A,/- A,2- A,2 A,, A,/4G,/4A,3/2 A,, | A,G,B, A,G,B, A,G,B, A,B,G, | %57
 F,E,G, F,A,E, F,E,G, F,E,D, | ^C,=B,,D, C,E,B,, C,B,,D, C,B,,A,, | D,2 F, A,2 A,, D,A,,D, F,D,F, | %60
 A,3 z2 C A,CA, F,A,F, | C,F,C, A,,F,,A,, B,,F,,B,, D,B,,D, | F,3 z2 ^F,, G,,D,,G,, B,,G,,B,, | %63
 D,C,_E, D,E,C, B,,A,,C, B,,C,A,, | G,,^F,,A,, G,,B,,A,, F,,G,,A,, D,,3- | %65
 D,,D,,D,, D,/4^C,/4D,/- D,2- D,2 D,, D,/4C,/4D,/-D, D,, | %66
 D,2 D,, D,/4^C,/4D,/- D,2- D,/D,/D,E, ^F,E,D, | G,B,,C, D,C,D, G,,DB, G,B,G, | %68
 E,2 C C,3- C,CA, F,A,F, | D,2 B, B,,3- B,,B,G, E,G,E, | C,2 A, A,,2 D, B,,2 G, G,,2 C, | %71
 A,,2 F, =B,,2 G, C,2 A, D,2 =B, | C,3 z C,B,, A,,G,,F,, F,,G,,A,, | %73
 A,,C,,F,, A,,F,,A,, C,G,,C, E,C,E, | F,C,F, A,F,A, CA,C[I:staff -1] ECE | %75
 AFD GEC FD[I:staff +1]B,[I:staff -1] EC[I:staff +1]A, | %76
[I:staff -1] D[I:staff +1]B,G, C2 C, F,,3- F,,2[I:staff -1] G | EGE CEC[I:staff +1] G,2 C C,3- | %78
 C,D,E, F,E,G, A,G,B, A,B,C | F,3 z2 F, A,F,A, CA,C | _E2 _E, D,2 C, B,,2 F, B,CA, | %81
 B,CA, =B,2 ^C DCE DG,_B, | A,2 A,, A,/4^G,/4A,/- A,2- A,2 A,, A,/4G,/4A,3/2 A,, | %83
 A,2 A,, A,/4^G,/4A,/- A,2- A,2 A,, A,/4G,/4A,3/2 A,, | A,G,B, A,G,B, A,G,B, A,B,G, | %85
 F,E,G, F,A,E, F,E,G, F,E,D, | ^C,=B,,D, C,E,B,, C,B,,D, C,B,,A,, | D,2 F, A,2 A,, D,A,,D, F,D,F, | %88
 A,3 z2 C A,CA, F,A,F, | C,F,C, A,,F,,A,, B,,F,,B,, D,B,,D, | F,3 z2 ^F,, G,,D,,G,, B,,G,,B,, | %91
 D,C,_E, D,E,C, B,,A,,C, B,,C,A,, | G,,^F,,A,, G,,B,,A,, F,,G,,A,, D,,3- | %93
 D,,D,,D,, D,/4^C,/4D,/- D,2- D,2 D,, D,/4C,/4D,/-D, D,, | %94
 D,2 D,, D,/4^C,/4D,/- D,2- D,/D,/D,E, ^F,E,D, | G,B,,C, D,C,D, G,,DB, G,B,G, | %96
 E,2 C C,3- C,CA, F,A,F, | D,2 B, B,,3- B,,B,G, E,G,E, | C,2 A, A,,2 D, B,,2 G, G,,2 C, | %99
 A,,2 F, =B,,2 G, C,2 A, D,2 =B, | C,3 z C,B,, A,,G,,F,, F,,G,,A,, | %101
 A,,C,,F,, A,,F,,A,, C,G,,C, E,C,E, | F,C,F, A,F,A, CA,C[I:staff -1] ECE | %103
 AFD GEC FD[I:staff +1]B,[I:staff -1] EC[I:staff +1]A, | %104
[I:staff -1] D[I:staff +1]B,G, C2 C, F,,3- F,,2 z |] %105
V:3
 x | x12 | x12 | x12 | x12 | G3 z z F DFB EGB | A2 z z3 G3 z z A | B3 z3 z2 B A2 G | F z z2 z8 | %9
 x12 | x12 | x12 | x12 | x12 | x12 | x12 | x12 | x12 | x12 | x12 | x12 | x12 | x12 | x12 | x12 | %25
 x12 | x12 | x12 | x12 | G3 z z F DFB EGB | A2 z z3 G3 z z A | B3 z3 z2 B A2 G | F z z2 z8 | x12 | %34
 x12 | x12 | x12 | x12 | x12 | x12 | x12 | x12 | x12 | x12 | x12 | x12 | x12 | x12 | x12 | x12 | %50
 x12 | x12 | x12 | x12 | x12 | x12 | x12 | x12 | x12 | x12 | x12 | x12 | x12 | x12 | x12 | x12 | %66
 x12 | x12 | x12 | x12 | x12 | x12 | x12 | x12 | x12 | x12 | x12 | x12 | x12 | x12 | x12 | x12 | %82
 x12 | x12 | x12 | x12 | x12 | x12 | x12 | x12 | x12 | x12 | x12 | x12 | x12 | x12 | x12 | x12 | %98
 x12 | x12 | x12 | x12 | x12 | x12 | x12 |] %105

